!!!COM: Claude Debussy
!!!CNT: Francais
!!!TXO: Francais
!!!OTL: Beau Soir
!!!LYR: Paul Bourget
!!!ENC: Jacob Pegg
!!!YOR: Claude Debussy: Songs 1880-1904, Edited by Rita Benton
!!!YOR: New York: Dover publications, inc., 1981
!!!YOR: ISBN 0-486-24131-9
!!!ODT: 1880/
!!NB: Vocal melody and text only encoded.
!!NB: First instance of melodic material only encoded.
**kern	**silbe
*clef G2	*
*k[f#c#g#d#]	*
*M3/4	*
*MM[andante]	* 
!! created: 6/25/03 6:46 PM
!! last edited: 7/10/03 10:26
=5	=5
{4g#	{Lors-
8g#	-que au
8g#	so-
8g#	-leil
8g#	cou-
=6	=6
2a}	-chant}
{8b	{les
8ccn	ri-
=7	=7
4b	-vie\-
4g#	-res
4b	sont
=8	=8
[2ddn	ro-
4ddn]}	-ses,}
=9	=9
{8dd#	{Et
8ee	qu'un
4b	tie\-
8g#	-de
8f#	fris-
=10	=10
8f#	-son
8e	court
8dn	sur
8cn	les
8dn	champs
8e	de
=11	=11
[2.e	ble/,
=12	=12
4e]}	|}
4r	.
4r	.
=13	=13
{8b	{Un
8b	con-
4g#	-seil
8b	d'e^-
8b	-tre heu-
=14	=14
8dd#	-reux
8b	sem-
8g#	-ble
8e#	sor-
8e#	-tir
8g#	des
=15	=15
2b	cho-
8b}	-ses}
8r	.
=16	=16
{(2dd#	{Et
4b	mon-
=17	=17
2dd#)	-ter
(8b	vers
8g#	le
=18	=18
4d#	coeur
4e#	|
4g#	trou-
=19	=19
2a#)}	-ble/}
4r	.
=20	=20
2r	.
{8c#	{Un
8f#	con-
=21	=21
4a	-seil
8a	de
8a	gou^-
8a	-ter
8b	le
=22	=22
4.cc#	char-
8cc#	-me
8cc#	d'e^-
8ee	-tre au
=23	=23
2dd#	mon-
4dd#}	-de}
=24	=24
{8ddn	{Ce-
8b	-pen-
4b	-dant
8f#	qu'on
8dn	est
=25	=25
8dn	jeune
8e	et
8f#	que
8g#	le
8b	soir
8ddn	est
=26	=26
[2.ff#	beau,
=27	=27
2ff#]	|
4g#}	|}
=28	=28
{4b	{Car
8a	nous
8a	nous
8g#	en
8e	al-
=29	=29
2.f#}	-lons,}
=30	=30
8r	.
{8dn	{Com-
8dn	-me
8dn	s'en
8dn	va
8dn	cette
=31	=31
4dn	on-
8dn}	-de,}
8r	.
4r	.
=32	=32
2.r	.
=33	=33
{2f#	{El-
8f#	-le a\
8f#	la
=34	=34
[4a	mer,
8a]}	|}
8r	.
4r	.
=35	=35
4r	.
4r	.
4r	.
=36	=36
2r	.
4r	.
=37	=37
{4g#	{Nous
4g#	au
4g#	tom-
=38	=38
[2.b	-beau.
=39	=39
2b]}	|}
4r	.
*-	*-
